X:70
T:L'occasion manquée
R:Chanson
O:France
A:Champagne
B:Le livre des Chansons (Henri Davenson) n°70
Z:<anamnese@caramail.com> -- http://anamnese.fr.st
M:2/4
L:1/8
Q:1/4=110
K:G
A | A d B A | G2 G D | E F G F/ E/ | A A/ A/ A A | A d B A |
G2 G D | E G F A | G2 !fine! z || G | B B d B | A A A G | B B d B | A2 !D.C.!z ||
W:Après ma journée faite, Ma tan déri toudé ra, la la la, après ma journée faite,
W:  je m'en fus promener, je m'en fus promener, voyez, je m'en fus promener.
W:
W:En mon chemin rencontre une fille à mon gré.
W:La pris par sa main blanche, dans les bois l'ai menée.
W:Quand elle fut dans le bois, elle se mit à pleurer :
W:"Ah ! Qu'avez-vous, la Belle, qu'avez-vous à pleurer ?
W:- Je pleure mon innocence que vous me l'allez ôter !
W:- Ne pleurez pas tant, la Belle, je vous la laisserai."
W:Quand elle fut dans les champs, elle se mit à chanter :
W:"Ah : Qu'avez-vous, la Belle, qu'avez-vous à chanter ?
W:- Je chante votre bêtise de me laisser aller :
W:Quand on tenait la poule, il fallait la plumer !"

